Obsidian-SemiLight/actions/24s/view-statistics.svg

<svg viewBox="0 0 24 24" xmlns="http://www.w3.org/2000/svg"><path d="m16 4v16h4v-16zm-6 7v9h4v-9zm-6 4v5h4v-5z" fill="#4d4d4d"/></svg>

<svg xmlns="http://www.w3.org/2000/svg" viewBox="0 0 24 24">
  <defs id="defs3051">
    <style type="text/css" id="current-color-scheme">
      .ColorScheme-Text {
        color:#4d4d4d;
      }
      </style>
  </defs>
 <path style="fill:currentColor;fill-opacity:1;stroke:none" 
     d="M 16 4 L 16 20 L 20 20 L 20 4 L 16 4 z M 10 11 L 10 20 L 14 20 L 14 11 L 10 11 z M 4 15 L 4 20 L 8 20 L 8 15 L 4 15 z "
     class="ColorScheme-Text"
     />
</svg>
